X:2220
T:Brown Paper Hornpipe. FK.30
T:Johnston's Hp.,aka. FK.30
M:C
L:1/8
Q:160
C:"by Thos. Pickering, MS 40 p.27"
S:Kidson's H'pipe MS,early 20thC.
O:England
A:Leeds
N:The A Strain is very like Johnston's Hp..CGP.
Z:vmp.John Bagnall
K:D
A2 | dcde fdAF | GFGA BGEC | DFAd Bgec | edcB A2 Bc |!
 dcde fdAF | GFGA BGEC | DFAd Bgec | d2 d2 d2 ||!
cd | eAcA eAgA | fAgA fAgA | efgf efed | ABcA BAGE |!
 Ddcd fdAF | GFGA BGEC | DFAd Bgec | d2 d2 d2 ||


